X: 53
T:Pistache
M:4/4
L:1/8
R:Schottische
N:http://www.lesession.co.uk
Z:Steve Mansfield 1998-2001
K:C
c2 cc c2 cc | cBcd e2 de | fedc BABc |1 dcdf edcB :|2 dccB c4 |: 
edcB G3 B | A3 c cBcd | edce d2 cB | AGAB c4 :|

%
%Hornpipes
%
